X: 162
T: Cox Heath
%R: march, reel
B: Chas & Sam Thompson "Twenty Four Country Dances for the Year 1779", London 1779, p.81 #2
F: http://www.vwml.org/browse/browse-collections-dance-tune-books/browse-thompsons1779
Z: 2014 John Chambers <jc:trillian.mit.edu> (added dance description)
M: 2/4
L: 1/16
K: G
% - - - - - - - - - - - - - - - - - - - - - - - - - - - - -
|:\
g4 d2c2 | B3AG2A2 | B2c2d2e2 | c2A2 A4 |\
g4 d2c2 | B3AG2A2 | BcdB A2c2 | B2G2 G4 :|
|:\
baga b2g2 | agfg a2f2 | g4 e2g2 | f2d2 Td4 |\
[c2C2]cd e2c2 | [B2B,2]Bc d2B2 | cdeA A2c2 | B2G2 G4 :|
% - - - - - - - - - - Dance description - - - - - - - - - -
%%begintext align
%% Half right and Left .|. the same back
%% again :|. Cross over one Cu .|: Right &
%% Left at top :|:
%%endtext

%%sep 1 1 500
%%sep 1 1 500
